images/01/network_cloud-data-transfer-1.svg

<svg fill="none" height="30" viewBox="0 0 30 30" width="30" xmlns="http://www.w3.org/2000/svg"><g fill="#555"><path d="m24.48 10.5779c.0137-.2044.02-.3941.02-.5779 0-5.23828-4.2617-9.5-9.5-9.5-4.812 0-8.79712 3.52173-9.41284 8.25-3.25854.85767-5.58716 3.8501-5.58716 7.25 0 3.7087 2.76392 6.9006 6.43115 7.4251.35718.0498.7168.0749 1.06885.0749h2c.27612 0 .5-.2239.5-.5s-.22388-.5-.5-.5h-2c-.30615 0-.61939-.022-.9292-.0649-3.17578-.4544-5.5708-3.2207-5.5708-6.4351 0-3.0522 2.16528-5.7253 5.14819-6.35571.21436-.04541.37428-.22486.39454-.44312.40796-4.39038 4.04367-7.70117 8.45727-7.70117 4.687 0 8.5 3.81299 8.5 8.5 0 .2876-.0183.5952-.0574.9678-.0141.1347.0271.2693.114.3733.087.1037.2122.1679.3472.1777 2.8577.207 5.0962 2.6147 5.0962 5.4812 0 3.0327-2.4673 5.5-5.5 5.5h-3c-.2761 0-.5.2239-.5.5s.2239.5.5.5h3c3.5842 0 6.5-2.9158 6.5-6.5 0-3.2175-2.3865-5.946-5.52-6.4221z"/><path d="m18.5 14.5c-.2761 0-.5.2239-.5.5v12.793l-2.6465-2.6465c-.1953-.1953-.5117-.1953-.707 0s-.1953.5117 0 .707l3.4998 3.4999c.0461.0461.1014.0826.1626.108.0612.0253.126.0386.1911.0386s.1299-.0133.1911-.0386c.0612-.0254.1165-.0619.1626-.108l3.4998-3.4999c.1953-.1953.1953-.5117 0-.707s-.5117-.1953-.707 0l-2.6465 2.6465v-12.793c0-.2761-.2239-.5-.5-.5z"/><path d="m11.5 29.4993c.2761 0 .5-.2239.5-.5v-12.793l2.6465 2.6465c.0976.0977.2256.1465.3535.1465s.2559-.0488.3535-.1465c.1953-.1953.1953-.5117 0-.707l-3.4998-3.4998c-.0461-.0462-.1014-.0827-.1626-.1081-.1223-.0505-.2599-.0505-.3822 0-.0612.0254-.1165.0619-.1626.1081l-3.49981 3.4998c-.19532.1953-.19532.5117 0 .707.19531.1953.51172.1953.70703 0l2.64648-2.6465v12.793c0 .2761.2239.5.5.5z"/></g></svg>

<svg xmlns="http://www.w3.org/2000/svg" width="30" height="30" viewBox="0 0 30 30" fill="none"><path d="M24.48 10.5779C24.4937 10.3735 24.5 10.1838 24.5 10C24.5 4.76172 20.2383 0.5 15 0.5C10.188 0.5 6.20288 4.02173 5.58716 8.75C2.32862 9.60767 0 12.6001 0 16C0 19.7087 2.76392 22.9006 6.43115 23.4251C6.78833 23.4749 7.14795 23.5 7.5 23.5H9.5C9.77612 23.5 10 23.2761 10 23C10 22.7239 9.77612 22.5 9.5 22.5H7.5C7.19385 22.5 6.88061 22.478 6.5708 22.4351C3.39502 21.9807 1 19.2144 1 16C1 12.9478 3.16528 10.2747 6.14819 9.64429C6.36255 9.59888 6.52247 9.41943 6.54273 9.20117C6.95069 4.81079 10.5864 1.5 15 1.5C19.687 1.5 23.5 5.31299 23.5 10C23.5 10.2876 23.4817 10.5952 23.4426 10.9678C23.4285 11.1025 23.4697 11.2371 23.5566 11.3411C23.6436 11.4448 23.7688 11.509 23.9038 11.5188C26.7615 11.7258 29 14.1335 29 17C29 20.0327 26.5327 22.5 23.5 22.5H20.5C20.2239 22.5 20 22.7239 20 23C20 23.2761 20.2239 23.5 20.5 23.5H23.5C27.0842 23.5 30 20.5842 30 17C30 13.7825 27.6135 11.054 24.48 10.5779Z" fill="#555555"/><path d="M18.5 14.5C18.2239 14.5 18 14.7239 18 15V27.793L15.3535 25.1465C15.1582 24.9512 14.8418 24.9512 14.6465 25.1465C14.4512 25.3418 14.4512 25.6582 14.6465 25.8535L18.1463 29.3534C18.1924 29.3995 18.2477 29.436 18.3089 29.4614C18.3701 29.4867 18.4349 29.5 18.5 29.5C18.5651 29.5 18.6299 29.4867 18.6911 29.4614C18.7523 29.436 18.8076 29.3995 18.8537 29.3534L22.3535 25.8535C22.5488 25.6582 22.5488 25.3418 22.3535 25.1465C22.1582 24.9512 21.8418 24.9512 21.6465 25.1465L19 27.793V15C19 14.7239 18.7761 14.5 18.5 14.5Z" fill="#555555"/><path d="M11.5 29.4993C11.7761 29.4993 12 29.2754 12 28.9993V16.2063L14.6465 18.8528C14.7441 18.9505 14.8721 18.9993 15 18.9993C15.1279 18.9993 15.2559 18.9505 15.3535 18.8528C15.5488 18.6575 15.5488 18.3411 15.3535 18.1458L11.8537 14.646C11.8076 14.5998 11.7523 14.5633 11.6911 14.5379C11.5688 14.4874 11.4312 14.4874 11.3089 14.5379C11.2477 14.5633 11.1924 14.5998 11.1463 14.646L7.64649 18.1458C7.45117 18.3411 7.45117 18.6575 7.64649 18.8528C7.8418 19.0481 8.15821 19.0481 8.35352 18.8528L11 16.2063V28.9993C11 29.2754 11.2239 29.4993 11.5 29.4993Z" fill="#555555"/></svg>
